build/images/fb-icons/pros-cons.svg

<svg xmlns="http://www.w3.org/2000/svg" preserveAspectRatio="xMidYMid" width="25" height="16" viewBox="0 0 25 16"><defs><style>.cls-1{fill:#000;fill-rule:evenodd}</style></defs><path d="M11.587 6.109c.075.21.112.391.112.544.015.363-.093.69-.323.982.085.267.085.546 0 .838-.074.272-.21.496-.404.673.044.535-.078.967-.368 1.296-.32.363-.812.549-1.477.559h-.968c-.33 0-.689-.037-1.08-.111a9.98 9.98 0 0 1-.91-.208 39.799 39.799 0 0 1-.904-.283c-.615-.205-1.01-.31-1.185-.315a.505.505 0 0 1-.337-.14.419.419 0 0 1-.143-.318V5.034c0-.119.045-.223.135-.311a.502.502 0 0 1 .323-.147c.12-.01.31-.15.57-.423.259-.272.512-.561.757-.866.34-.416.592-.702.757-.86.09-.086.168-.2.233-.344.065-.143.109-.259.131-.347.023-.088.056-.233.101-.433.035-.186.067-.332.094-.437.028-.105.076-.229.146-.373.07-.143.156-.262.256-.358a.474.474 0 0 1 .337-.136c.23 0 .436.025.619.075.182.05.332.113.45.187.117.074.217.17.3.29.082.119.142.227.18.322.037.095.067.215.09.358a2.92 2.92 0 0 1 .041.602c0 .181-.024.363-.071.544a2.78 2.78 0 0 1-.143.43 5.478 5.478 0 0 1-.281.53 1.203 1.203 0 0 0-.142.329h2.077c.39 0 .727.136 1.012.409.285.272.427.594.427.967 0 .41-.137.766-.412 1.067zM2.64 10.084H.481a.472.472 0 0 1-.338-.136.43.43 0 0 1-.142-.322V5.042c0-.124.047-.232.142-.323a.476.476 0 0 1 .338-.136H2.64c.13 0 .243.046.338.136a.433.433 0 0 1 .142.323v4.584a.43.43 0 0 1-.142.322.472.472 0 0 1-.338.136zm-.862-1.697a.47.47 0 0 0-.337-.137.47.47 0 0 0-.342.137.436.436 0 0 0-.138.322c0 .129.046.237.138.326a.479.479 0 0 0 .342.132c.13 0 .242-.044.337-.132a.43.43 0 0 0 .143-.326.43.43 0 0 0-.143-.322zm23.079 2.894a.476.476 0 0 1-.338.136H22.36a.476.476 0 0 1-.338-.136.433.433 0 0 1-.142-.323V6.374a.43.43 0 0 1 .142-.322.472.472 0 0 1 .338-.136h2.159c.13 0 .243.045.338.136a.43.43 0 0 1 .142.322v4.584a.433.433 0 0 1-.142.323zm-.956-4.316a.479.479 0 0 0-.342-.132.479.479 0 0 0-.337.132.43.43 0 0 0-.143.326.43.43 0 0 0 .143.322.47.47 0 0 0 .337.137.47.47 0 0 0 .342-.137.436.436 0 0 0 .138-.322.435.435 0 0 0-.138-.326zm-2.959 4.459c-.12.01-.31.15-.57.423-.259.272-.512.561-.757.866-.34.416-.592.702-.757.86-.09.086-.168.2-.233.344a2.168 2.168 0 0 0-.131.347c-.023.088-.056.233-.101.433a7.098 7.098 0 0 1-.094.437 2.133 2.133 0 0 1-.146.373c-.07.143-.156.262-.256.358a.474.474 0 0 1-.337.136c-.23 0-.436-.025-.619-.075a1.693 1.693 0 0 1-.45-.187 1.034 1.034 0 0 1-.3-.29 1.692 1.692 0 0 1-.18-.322 1.788 1.788 0 0 1-.09-.358 2.92 2.92 0 0 1-.041-.602c0-.181.024-.363.071-.544a2.78 2.78 0 0 1 .143-.43 5.478 5.478 0 0 1 .281-.53 1.203 1.203 0 0 0 .142-.329H14.44c-.39 0-.727-.136-1.012-.409a1.292 1.292 0 0 1-.427-.967c0-.41.137-.766.412-1.067a1.656 1.656 0 0 1-.112-.544c-.015-.363.093-.69.323-.982a1.408 1.408 0 0 1 0-.838c.074-.272.21-.496.404-.673-.044-.535.078-.967.368-1.296.32-.363.812-.549 1.477-.559h.968c.33 0 .689.037 1.08.111.389.074.693.144.91.208.218.064.519.159.904.283.615.205 1.01.31 1.185.315.13.005.242.051.337.14a.419.419 0 0 1 .143.318v4.592a.421.421 0 0 1-.135.311.502.502 0 0 1-.323.147z" class="cls-1"/></svg>

<svg xmlns="http://www.w3.org/2000/svg" xmlns:xlink="http://www.w3.org/1999/xlink" preserveAspectRatio="xMidYMid" width="25" height="16" viewBox="0 0 25 16">
  <defs>
    <style>
      .cls-1 {
        fill: #000;
        fill-rule: evenodd;
      }
    </style>
  </defs>
  <path d="M11.587,6.109 C11.662,6.319 11.699,6.500 11.699,6.653 C11.714,7.016 11.606,7.343 11.376,7.635 C11.461,7.902 11.461,8.181 11.376,8.473 C11.302,8.745 11.166,8.969 10.972,9.146 C11.016,9.681 10.894,10.113 10.604,10.442 C10.284,10.805 9.792,10.991 9.127,11.001 L8.857,11.001 L8.287,11.001 L8.159,11.001 C7.829,11.001 7.470,10.964 7.079,10.890 C6.690,10.816 6.386,10.746 6.169,10.682 C5.951,10.618 5.650,10.523 5.265,10.399 C4.650,10.194 4.255,10.089 4.080,10.084 C3.950,10.079 3.838,10.033 3.743,9.944 C3.648,9.856 3.600,9.750 3.600,9.626 L3.600,5.034 C3.600,4.915 3.645,4.811 3.735,4.723 C3.825,4.634 3.933,4.586 4.058,4.576 C4.178,4.566 4.368,4.426 4.628,4.153 C4.887,3.881 5.140,3.592 5.385,3.287 C5.725,2.871 5.977,2.585 6.142,2.427 C6.232,2.341 6.310,2.227 6.375,2.083 C6.440,1.940 6.484,1.824 6.506,1.736 C6.529,1.648 6.562,1.503 6.607,1.303 C6.642,1.117 6.674,0.971 6.701,0.866 C6.729,0.761 6.777,0.637 6.847,0.493 C6.917,0.350 7.003,0.231 7.103,0.135 C7.198,0.045 7.310,-0.001 7.440,-0.001 C7.670,-0.001 7.876,0.024 8.059,0.074 C8.241,0.124 8.391,0.187 8.509,0.261 C8.626,0.335 8.726,0.431 8.809,0.551 C8.891,0.670 8.951,0.778 8.989,0.873 C9.026,0.968 9.056,1.088 9.079,1.231 C9.101,1.374 9.114,1.482 9.116,1.553 C9.119,1.625 9.120,1.718 9.120,1.833 C9.120,2.014 9.096,2.196 9.049,2.377 C9.001,2.559 8.954,2.702 8.906,2.807 C8.859,2.912 8.790,3.046 8.700,3.208 C8.685,3.236 8.660,3.279 8.625,3.337 C8.590,3.394 8.563,3.447 8.543,3.494 C8.523,3.542 8.503,3.599 8.483,3.666 L10.560,3.666 C10.950,3.666 11.287,3.802 11.572,4.075 C11.857,4.347 11.999,4.669 11.999,5.042 C11.999,5.452 11.862,5.808 11.587,6.109 ZM2.640,10.084 L0.481,10.084 C0.351,10.084 0.238,10.039 0.143,9.948 C0.048,9.857 0.001,9.750 0.001,9.626 L0.001,5.042 C0.001,4.918 0.048,4.810 0.143,4.719 C0.238,4.629 0.351,4.583 0.481,4.583 L2.640,4.583 C2.770,4.583 2.883,4.629 2.978,4.719 C3.073,4.810 3.120,4.918 3.120,5.042 L3.120,9.626 C3.120,9.750 3.073,9.857 2.978,9.948 C2.883,10.039 2.770,10.084 2.640,10.084 ZM1.778,8.387 C1.683,8.296 1.571,8.250 1.441,8.250 C1.306,8.250 1.192,8.296 1.099,8.387 C1.007,8.477 0.961,8.585 0.961,8.709 C0.961,8.838 1.007,8.946 1.099,9.035 C1.192,9.123 1.306,9.167 1.441,9.167 C1.571,9.167 1.683,9.123 1.778,9.035 C1.873,8.946 1.921,8.838 1.921,8.709 C1.921,8.585 1.873,8.477 1.778,8.387 Z" class="cls-1"/>
  <path d="M24.857,11.281 C24.762,11.371 24.649,11.417 24.519,11.417 L22.360,11.417 C22.230,11.417 22.117,11.371 22.022,11.281 C21.927,11.190 21.880,11.082 21.880,10.958 L21.880,6.374 C21.880,6.250 21.927,6.143 22.022,6.052 C22.117,5.961 22.230,5.916 22.360,5.916 L24.519,5.916 C24.649,5.916 24.762,5.961 24.857,6.052 C24.952,6.143 24.999,6.250 24.999,6.374 L24.999,10.958 C24.999,11.082 24.952,11.190 24.857,11.281 ZM23.901,6.965 C23.808,6.877 23.694,6.833 23.559,6.833 C23.429,6.833 23.317,6.877 23.222,6.965 C23.127,7.054 23.079,7.162 23.079,7.291 C23.079,7.415 23.127,7.523 23.222,7.613 C23.317,7.704 23.429,7.750 23.559,7.750 C23.694,7.750 23.808,7.704 23.901,7.613 C23.993,7.523 24.039,7.415 24.039,7.291 C24.039,7.162 23.993,7.054 23.901,6.965 ZM20.942,11.424 C20.822,11.434 20.632,11.574 20.372,11.847 C20.113,12.119 19.860,12.408 19.615,12.713 C19.275,13.129 19.023,13.415 18.858,13.573 C18.768,13.659 18.690,13.773 18.625,13.917 C18.560,14.060 18.516,14.176 18.494,14.264 C18.471,14.352 18.438,14.497 18.393,14.697 C18.358,14.883 18.326,15.029 18.299,15.134 C18.271,15.239 18.223,15.363 18.153,15.507 C18.083,15.650 17.997,15.769 17.897,15.865 C17.802,15.955 17.690,16.001 17.560,16.001 C17.330,16.001 17.124,15.976 16.941,15.926 C16.759,15.876 16.609,15.813 16.491,15.739 C16.374,15.665 16.274,15.569 16.191,15.449 C16.109,15.330 16.049,15.222 16.011,15.127 C15.974,15.032 15.944,14.912 15.921,14.769 C15.899,14.626 15.886,14.518 15.884,14.447 C15.881,14.375 15.880,14.282 15.880,14.167 C15.880,13.986 15.904,13.804 15.951,13.623 C15.999,13.441 16.046,13.298 16.094,13.193 C16.141,13.088 16.210,12.954 16.300,12.792 C16.315,12.764 16.340,12.721 16.375,12.663 C16.410,12.606 16.437,12.553 16.457,12.506 C16.477,12.458 16.497,12.401 16.517,12.334 L14.440,12.334 C14.050,12.334 13.713,12.198 13.428,11.925 C13.143,11.653 13.001,11.331 13.001,10.958 C13.001,10.548 13.138,10.192 13.413,9.891 C13.338,9.681 13.301,9.500 13.301,9.347 C13.286,8.984 13.394,8.657 13.624,8.365 C13.539,8.098 13.539,7.819 13.624,7.527 C13.698,7.255 13.834,7.031 14.028,6.854 C13.984,6.319 14.106,5.887 14.396,5.558 C14.716,5.195 15.208,5.009 15.873,4.999 L16.143,4.999 L16.713,4.999 L16.841,4.999 C17.171,4.999 17.530,5.036 17.921,5.110 C18.310,5.184 18.614,5.254 18.831,5.318 C19.049,5.382 19.350,5.477 19.735,5.601 C20.350,5.806 20.745,5.911 20.920,5.916 C21.050,5.921 21.162,5.967 21.257,6.056 C21.352,6.144 21.400,6.250 21.400,6.374 L21.400,10.966 C21.400,11.085 21.355,11.189 21.265,11.277 C21.175,11.366 21.067,11.414 20.942,11.424 Z" class="cls-1"/>
</svg>
